X:051
L:1/8
M:C
K:Am
e | d/2c/2B/2A/2 ^GB A<A, A,>B, | C>D E>^F G2 (G<B) | A/2B/2c B/2c/2d c<A, A,>B, | C>D E>^G (A2 A) ||
(c/2B/2) | A<e c>B A/2B/2c/2B/2 A>E | G<B G>D (B,2 G,)(c/2B/2) | A<e c>B A/2B/2c/2d/2 e<a | c>A B>^G (A2 A) (c/2B/2) |

